icons/moon.svg

<?xml version="1.0" standalone="no"?><!-- Generator: Gravit.io --><svg xmlns="http://www.w3.org/2000/svg" xmlns:xlink="http://www.w3.org/1999/xlink" width="96" height="96"><path d=" M 4 48 C 4 36.4 8.6 25.3 16.7 17 C 24.9 8.8 36 4.1 47.6 4 C 49.2 3.7 51 4.1 52.3 5.1 C 53.7 6.2 54.6 7.7 54.8 9.4 C 54.5 12.1 46.0179283425633 22.86568986347838 46.8 32.3 C 47.233336735880535 37.52744063279888 47.21118604956216 41.370848898857076 50.9 45.1 C 54.649472145217906 48.89047259279218 58.58527686114867 48.87580452403171 63.9 49.3 C 73.31289443037338 50.05129167198622 84 41.5 86.7 41.2 C 88.3 41.4 89.9 42.3 90.9 43.7 C 91.9 45.1 92.3 46.8 92 48.5 C 91.9 60 87.2 71.1 79 79.3 C 70.7 87.4 59.6 92 48 92 C 36.3 92 25.1 87.4 16.9 79.1 C 8.6 70.9 4 59.7 4 48 Z  M 45.3 12.1 C 45.3 12.1 45.3 12.1 45.3 12.1 C 41.4 18.1 39.2 25 38.8 32.1 C 38.9 38.9 39.645764922317355 45.411191054586915 45.1 50.9 C 50.58908589094074 56.423880674599936 57.2 57.2 64 57.3 C 71.1 56.9 78 54.7 83.9 50.8 C 83.2 59.8 79.1 68.3 72.4 74.4 C 65.8 80.6 57.1 84 48 84 C 38.5 84 29.3 80.2 22.5 73.5 C 15.8 66.7 12 57.5 12 48 C 12 38.9 15.4 30.2 21.6 23.5 C 27.8 16.9 36.3 12.8 45.3 12.1 Z " fill-rule="evenodd" fill="#454545" stroke="none"/><mask id="_mask_sUmPubFAkrJw2QiypAnbw5Co4eXfY3v8"><path d=" M 4 48 C 4 36.4 8.6 25.3 16.7 17 C 24.9 8.8 36 4.1 47.6 4 C 49.2 3.7 51 4.1 52.3 5.1 C 53.7 6.2 54.6 7.7 54.8 9.4 C 54.5 12.1 46.0179283425633 22.86568986347838 46.8 32.3 C 47.233336735880535 37.52744063279888 47.21118604956216 41.370848898857076 50.9 45.1 C 54.649472145217906 48.89047259279218 58.58527686114867 48.87580452403171 63.9 49.3 C 73.31289443037338 50.05129167198622 84 41.5 86.7 41.2 C 88.3 41.4 89.9 42.3 90.9 43.7 C 91.9 45.1 92.3 46.8 92 48.5 C 91.9 60 87.2 71.1 79 79.3 C 70.7 87.4 59.6 92 48 92 C 36.3 92 25.1 87.4 16.9 79.1 C 8.6 70.9 4 59.7 4 48 Z  M 45.3 12.1 C 45.3 12.1 45.3 12.1 45.3 12.1 C 41.4 18.1 39.2 25 38.8 32.1 C 38.9 38.9 39.645764922317355 45.411191054586915 45.1 50.9 C 50.58908589094074 56.423880674599936 57.2 57.2 64 57.3 C 71.1 56.9 78 54.7 83.9 50.8 C 83.2 59.8 79.1 68.3 72.4 74.4 C 65.8 80.6 57.1 84 48 84 C 38.5 84 29.3 80.2 22.5 73.5 C 15.8 66.7 12 57.5 12 48 C 12 38.9 15.4 30.2 21.6 23.5 C 27.8 16.9 36.3 12.8 45.3 12.1 Z " fill-rule="evenodd" fill="white" stroke="none"/></mask><path d=" M 4 48 C 4 36.4 8.6 25.3 16.7 17 C 24.9 8.8 36 4.1 47.6 4 C 49.2 3.7 51 4.1 52.3 5.1 C 53.7 6.2 54.6 7.7 54.8 9.4 C 54.5 12.1 46.0179283425633 22.86568986347838 46.8 32.3 C 47.233336735880535 37.52744063279888 47.21118604956216 41.370848898857076 50.9 45.1 C 54.649472145217906 48.89047259279218 58.58527686114867 48.87580452403171 63.9 49.3 C 73.31289443037338 50.05129167198622 84 41.5 86.7 41.2 C 88.3 41.4 89.9 42.3 90.9 43.7 C 91.9 45.1 92.3 46.8 92 48.5 C 91.9 60 87.2 71.1 79 79.3 C 70.7 87.4 59.6 92 48 92 C 36.3 92 25.1 87.4 16.9 79.1 C 8.6 70.9 4 59.7 4 48 Z  M 45.3 12.1 C 45.3 12.1 45.3 12.1 45.3 12.1 C 41.4 18.1 39.2 25 38.8 32.1 C 38.9 38.9 39.645764922317355 45.411191054586915 45.1 50.9 C 50.58908589094074 56.423880674599936 57.2 57.2 64 57.3 C 71.1 56.9 78 54.7 83.9 50.8 C 83.2 59.8 79.1 68.3 72.4 74.4 C 65.8 80.6 57.1 84 48 84 C 38.5 84 29.3 80.2 22.5 73.5 C 15.8 66.7 12 57.5 12 48 C 12 38.9 15.4 30.2 21.6 23.5 C 27.8 16.9 36.3 12.8 45.3 12.1 Z " fill-rule="evenodd" fill="none" stroke="none" stroke-width="16" mask="url(#_mask_sUmPubFAkrJw2QiypAnbw5Co4eXfY3v8)"/></svg>

<svg xmlns="http://www.w3.org/2000/svg" width="96" height="96"><path d="M4 48c0-11.6 4.6-22.7 12.7-31C24.9 8.8 36 4.1 47.6 4c1.6-.3 3.4.1 4.7 1.1 1.4 1.1 2.3 2.6 2.5 4.3-.3 2.7-8.782 13.466-8 22.9.433 5.227.411 9.07 4.1 12.8 3.75 3.79 7.685 3.776 13 4.2 9.413.751 20.1-7.8 22.8-8.1 1.6.2 3.2 1.1 4.2 2.5s1.4 3.1 1.1 4.8c-.1 11.5-4.8 22.6-13 30.8C70.7 87.4 59.6 92 48 92c-11.7 0-22.9-4.6-31.1-12.9C8.6 70.9 4 59.7 4 48zm41.3-35.9c-3.9 6-6.1 12.9-6.5 20 .1 6.8.846 13.311 6.3 18.8 5.49 5.524 12.1 6.3 18.9 6.4 7.1-.4 14-2.6 19.9-6.5-.7 9-4.8 17.5-11.5 23.6C65.8 80.6 57.1 84 48 84c-9.5 0-18.7-3.8-25.5-10.5C15.8 66.7 12 57.5 12 48c0-9.1 3.4-17.8 9.6-24.5 6.2-6.6 14.7-10.7 23.7-11.4z" fill-rule="evenodd" fill="#454545"/></svg>
